X:1
T:Title
%%score { ( 1 4 ) | ( 2 3 ) }
L:1/8
M:4/2
K:A
V:1 treble nm="Grand Piano"
V:4 treble 
V:2 bass 
V:3 bass 
V:1
 z8 z4[Q:1/4=196] E4 | E4 F4 E4 E4 | [CE]12 [Cc]4 | [A,EA]4 [A,EG]4 [A,DF]4 .[A,^DG]4 | %4
[M:6/4] [EB]12 |[M:2/4] [EB]4 |[M:8/4] [EA]4 [=Ge]4 [Fe]4 [^Ed]4 | [Ec]12 [EA]4 | z8 z4 G4 | %9
[M:6/4] A12 |] %10
V:2
 z8 z4 [A,C]4 | [A,C]4 [^D,A,=C]4 [E,A,B,]4 [E,G,D]4 | [A,,A,]12 [A,,E,]4 | C,4 C,4 D,4 z2 A2 | %4
[M:6/4] [E,G,]12 |[M:2/4] [D,G,]4 |[M:8/4] [C,A,]4 [C,A,]4 [D,A,]4 [B,,A,]4 | [E,A,]12 [C,A,]4 | %8
 [D,A,D]4 [F,A,C]4 [E,B,E]4 .[E,CE]4 |[M:6/4] [A,CE]12 |] %10
V:3
 x16 | x16 | x16 | z8 z4 B,,4 |[M:6/4] x12 |[M:2/4] x4 |[M:8/4] x16 | x16 | x16 |[M:6/4] x12 |] %10
V:4
 x16 | x16 | x16 | x16 |[M:6/4] x12 |[M:2/4] x4 |[M:8/4] x16 | x16 | F2 G2 A4 A4 z2 D2 | %9
[M:6/4] x12 |] %10

